dist/svgs/carbon-icons/svg/pause-glyph.svg

<svg xmlns="http://www.w3.org/2000/svg" viewBox="0 0 16 16"><path d="M8 0C3.6 0 0 3.6 0 8s3.6 8 8 8 8-3.6 8-8-3.6-8-8-8zM7 11H5V5h2v6zm4 0H9V5h2v6z"/></svg>

<svg width="16px" height="16px" viewBox="0 0 16 16" version="1.1" xmlns="http://www.w3.org/2000/svg" xmlns:xlink="http://www.w3.org/1999/xlink">
  <!-- Generator: Sketch 40.1 (33804) - http://www.bohemiancoding.com/sketch -->
  <desc>Created with Sketch.</desc>
  <defs></defs>
  <path d="M8,0 C3.6,0 0,3.6 0,8 C0,12.4 3.6,16 8,16 C12.4,16 16,12.4 16,8 C16,3.6 12.4,0 8,0 L8,0 Z M7,11 L5,11 L5,5 L7,5 L7,11 L7,11 Z M11,11 L9,11 L9,5 L11,5 L11,11 L11,11 Z" id="Shape" fill="#000000"></path>
</svg>
